assets/flags/Paleoconservatism.svg

<svg xmlns="http://www.w3.org/2000/svg" xml:space="preserve" id="svg1" width="4608" height="3072" version="1.1" viewBox="0 0 1219.2 812.8"><defs id="defs1"><style id="style1">.cls-1{fill:#0283c0}.cls-2{fill:#fff}.cls-3{fill:#ef483f}</style></defs><path id="rect1" d="M 0,0 V 812.8 H 1219.2 V 0 Z" style="display:inline;fill:#fff;fill-opacity:1;fill-rule:evenodd;stroke:none;stroke-width:8.46667;stroke-linecap:round;stroke-linejoin:round"/><path id="path2" fill="#e00000" d="M 3.6576e-4,-6.15985e-6 0,507.99997 H 101.59943 L 101.5998,-6.15985e-6 Z m 203.20037424,0 L 203.20037,507.99997 H 304.79981 L 304.80018,-6.15985e-6 Z m 203.19888,0 L 406.39925,507.99997 H 508.00019 L 508.00056,-6.15985e-6 Z m 203.20038,0 L 609.59963,507.99997 H 711.19907 L 711.19944,-6.15985e-6 Z m 203.20038,0 L 812.80001,507.99997 H 914.39945 L 914.39982,-6.15985e-6 Z m 203.19892,0 -4e-4,507.99997615985 h 101.6009 l 4e-4,-507.99997615985 z" paint-order="stroke fill markers" style="display:inline;stroke-width:1;fill:#d00000;fill-opacity:1"/><path id="path3" d="M 382.86103 67.734067 C 375.40803 67.717067 372.48108 68.050886 364.10109 69.875884 C 352.8111 72.333882 346.9859 73.859044 342.7749 75.460043 C 339.84791 76.573042 333.87004 78.992045 330.02804 80.618043 C 326.37205 82.165041 319.79903 84.337971 311.34804 86.790969 C 302.98804 89.216966 298.89602 90.570021 293.87002 92.567019 C 278.84604 98.540013 268.55511 105.5331 264.12712 112.7801 C 262.67749 115.16447 261.12775 117.48633 259.48209 119.73988 C 254.6901 126.29188 249.50407 135.12386 248.88807 137.78186 C 248.40607 139.85886 246.9381 143.32805 243.3611 150.84705 C 239.45911 159.04804 239.01308 160.36399 237.10308 169.30898 C 235.30808 177.71397 233.51388 184.5021 232.76088 185.74209 C 232.35388 186.41209 232.17984 187.98195 231.97885 192.77595 C 231.78385 197.45195 231.45986 201.27902 230.46886 210.65601 C 230.09733 214.15468 229.74541 217.65545 229.41294 221.15804 C 228.66094 229.42603 227.52317 234.93793 225.01217 242.48492 C 223.04817 248.38491 220.78488 253.72913 217.31789 260.65712 C 216.30789 262.67712 215.37315 264.75314 215.24015 265.27114 C 214.28215 269.01513 214.08198 276.89801 214.90598 278.49101 C 215.42797 279.50001 216.65394 279.15499 218.41894 277.50399 C 221.84094 274.30299 226.36985 267.03108 228.49585 261.32409 C 229.22985 259.35609 229.52407 258.19404 229.71507 256.51404 C 229.92907 254.62605 230.17898 253.97089 231.98298 250.5809 C 235.47198 244.0209 237.98502 237.87112 239.90601 231.19912 C 241.08301 227.10913 241.89916 223.48891 242.96216 217.62992 C 244.62616 208.46993 246.57595 199.38694 247.59995 196.03295 C 248.02995 194.62295 248.51392 193.78807 248.75992 194.03307 C 248.83292 194.10507 248.93994 197.42499 248.99694 201.40799 C 249.09494 208.30798 249.19085 209.70083 249.62085 210.50683 C 249.91684 211.05783 250.38106 213.7851 250.73706 217.0601 C 251.32706 222.47809 252.23517 226.83205 253.49417 230.27205 C 254.98817 234.35804 256.13984 238.10186 258.26184 245.77085 C 260.91784 255.37084 261.02895 255.80299 261.54295 258.59798 C 262.72695 265.02998 262.75993 271.53999 261.63493 276.90799 C 260.67493 281.48998 258.53513 286.4019 255.74313 290.4269 C 252.42013 295.21589 247.69389 299.81613 241.8649 303.93512 C 237.2159 307.22012 236.32811 307.88 234.04211 309.747 C 231.18812 312.079 226.18496 316.91309 223.99897 319.44909 C 221.86097 321.92908 220.06303 324.463 219.18203 326.238 C 218.50003 327.61099 218.42394 327.88002 218.37794 329.05402 C 218.28794 331.39902 219.48917 334.93088 221.42617 338.66687 L -0.00024384015 338.66687 L 0.00010066961 541.867 L 812.80024 541.867 L 812.7999 338.66687 L 597.27287 338.66687 C 598.00487 336.01488 598.21302 334.94115 598.34602 333.16815 C 598.51102 330.97316 598.33896 325.81412 598.03596 323.85812 C 597.63596 321.27112 596.57587 318.94607 590.91288 308.23908 C 584.90089 296.87009 582.54008 290.60794 582.02108 284.65395 C 581.66308 280.54395 581.49388 267.62711 581.67588 258.22212 C 581.87588 247.87513 582.03295 245.07507 582.57195 242.24307 C 583.83795 235.59708 584.41198 227.47483 584.41198 216.10684 C 584.41198 203.78685 583.65192 190.63407 582.23192 178.42609 C 581.69492 173.81709 581.75796 171.59112 582.56196 166.86813 C 583.28196 162.64613 583.5141 160.26685 583.3881 158.42385 C 583.0671 153.74185 581.81212 150.69698 577.19312 143.39599 C 574.50313 139.14399 572.89417 134.50212 570.30017 123.50813 C 569.29017 119.22813 568.58604 116.85814 567.63504 114.52814 C 564.97805 108.02014 560.96007 103.97611 553.54907 100.34812 C 543.27208 95.318122 542.16804 94.73809 540.79705 93.648091 C 537.42305 90.963094 534.29685 89.39212 530.61885 88.532121 C 529.60785 88.296121 528.72597 88.232977 526.45097 88.239977 C 523.87097 88.246977 523.36095 88.295075 521.65195 88.695074 C 519.16295 89.278074 517.49487 89.872153 514.74487 91.153151 C 508.96288 93.848149 508.05791 94.245907 506.48491 94.782906 C 502.21091 96.239905 498.82295 96.134011 494.40295 94.406012 C 493.50495 94.056013 490.86096 92.822125 488.52596 91.666126 C 486.19096 90.510127 483.52191 89.253908 482.59591 88.874908 C 481.66991 88.494909 479.253 87.429025 477.225 86.505026 C 470.40201 83.395029 470.13116 83.339092 459.10517 82.695092 C 451.17718 82.233093 447.11491 81.832097 442.74991 81.082098 C 438.18492 80.297098 436.38599 79.761967 426.477 76.24897 C 416.13101 72.580974 412.51884 71.501124 406.27184 70.212126 C 397.93985 68.492127 390.94605 67.752067 382.86206 67.734067 L 382.86103 67.734067 z M 516.50394 211.80012 C 517.45094 211.84712 518.04697 212.09286 519.16597 212.75786 C 521.26096 214.00086 531.62791 218.22301 535.8299 219.54401 C 537.3899 220.03401 538.36317 220.54686 540.40017 221.95386 C 542.46117 223.37686 543.99511 224.23413 544.69311 224.35613 C 547.2661 224.80213 548.8409 230.1641 550.1839 243.04509 C 551.1509 252.31708 552.40606 257.96506 557.23705 274.79304 C 559.86705 283.95703 560.72685 287.25117 561.00185 289.23317 C 561.20485 290.69117 561.81911 291.99895 563.04411 293.58295 C 564.29911 295.20595 565.59393 297.296 567.08693 300.109 C 569.22893 304.14199 570.83385 306.53084 573.68085 309.92684 C 578.58884 315.77983 581.95993 321.39689 583.68093 326.58388 C 585.09093 330.83688 585.57508 334.76588 585.12408 338.66687 L 539.21988 338.66687 C 538.83188 338.29087 538.53299 337.9791 538.09299 337.5641 C 535.28599 334.9141 533.448 331.94301 532.319 328.23202 C 531.69101 326.16802 531.54394 325.36389 531.26894 322.4949 C 530.98294 319.4999 530.39885 317.70291 528.22485 313.13491 C 525.84585 308.13292 524.73407 304.97607 524.13207 301.51908 C 523.75108 299.32508 523.67405 298.49284 523.48405 294.51485 C 523.34305 291.55085 522.96599 288.73403 522.424 286.57803 C 522.077 285.20103 518.99389 275.30187 518.05389 272.54787 C 516.36789 267.60788 515.64492 266.13312 513.30792 262.85612 C 512.36792 261.53813 511.04415 259.52604 510.36615 258.38404 C 509.04416 256.15905 506.70112 252.96703 503.78912 249.42403 L 501.98113 247.22399 L 502.04108 233.70991 C 502.09508 221.49092 502.12711 220.09309 502.38111 219.12509 C 502.96111 216.90009 503.79604 216.16893 507.94804 214.24993 C 511.67804 212.52593 513.60306 211.89611 515.40805 211.81011 C 515.83405 211.79011 516.18794 211.78412 516.50394 211.80012 z M 412.863 259.51817 L 412.77791 259.89989 C 412.63791 260.53089 410.95786 270.45086 410.77286 271.74585 C 410.27486 275.20785 409.22998 285.66799 408.43399 295.15598 C 407.72799 303.56497 407.24197 307.05209 406.20397 311.14709 C 405.25897 314.87809 404.54014 316.835 402.65415 320.813 C 401.92315 322.357 401.17413 324.16106 400.98913 324.82206 C 400.59713 326.22906 400.34611 328.89701 400.34111 331.71501 C 400.33711 334.18101 400.07886 336.07288 399.29586 338.66687 L 325.97695 338.66687 C 325.96495 336.85488 326.10915 334.33694 326.40415 331.79494 C 326.98815 326.76494 327.11384 324.76215 327.11384 320.57115 C 327.11484 315.77716 326.87413 313.49104 326.01313 310.11804 C 325.71468 308.94981 325.44762 307.77362 325.21283 306.59095 C 324.87583 304.74495 324.74513 300.31094 324.89313 295.76094 L 325.01302 292.11603 L 328.00198 290.00005 C 338.32697 282.69206 341.9451 279.27306 346.3051 272.70807 C 348.53009 269.35807 349.00585 268.80886 350.20185 268.22186 C 351.79284 267.44186 353.02699 267.35997 359.77198 267.58797 C 365.87198 267.79397 372.97696 267.71489 375.64596 267.41089 C 378.50596 267.08589 387.74817 265.47788 389.99617 264.91388 C 392.77017 264.21888 394.5421 263.71114 399.45709 262.19914 C 406.04509 260.17315 408.08187 259.70092 410.64987 259.60292 L 412.863 259.51817 z M 460.17315 277.20013 L 460.17349 277.20013 L 460.17384 277.20013 C 461.0551 277.19816 461.14981 277.24435 463.46012 278.77489 C 464.76912 279.64189 467.17993 281.16497 468.81793 282.15797 C 472.24993 284.24097 473.83309 285.48113 474.85409 286.88912 C 476.10609 288.61512 480.3269 296.77887 482.4209 301.52287 C 483.6869 304.39286 484.35809 305.6511 485.39609 307.0991 C 486.32209 308.3891 487.87507 309.90097 488.96107 310.56797 C 491.58107 312.17697 491.79898 312.42794 492.27698 314.40994 C 492.42698 315.02594 492.97995 318.07115 493.50895 321.17715 C 494.88895 329.28914 495.67902 332.61208 497.16902 336.57708 C 497.48702 337.42308 497.71203 338.07687 497.86803 338.66687 L 440.51198 338.66687 C 440.43998 336.87788 440.67485 335.08189 441.47385 331.1669 C 442.81185 324.6169 443.29885 322.96701 444.91585 319.52901 C 446.75984 315.60802 447.37585 313.72898 449.70384 304.93799 C 450.32384 302.60099 451.19901 299.46204 451.65101 297.96305 C 453.44601 292.00605 454.69613 286.48305 454.69613 284.50305 C 454.69613 283.45305 455.19016 281.48599 455.71416 280.45299 C 455.93216 280.02199 456.45912 279.28303 456.88412 278.81003 C 457.85593 277.72823 458.93145 277.20233 460.17315 277.20013 z M 285.74614 314.55808 C 286.33014 314.55808 287.20915 315.38506 287.67815 316.37606 C 288.80715 318.76306 289.29809 322.65593 289.16609 328.18792 C 289.06609 332.34492 288.78909 335.01888 288.03609 338.66687 L 261.23013 338.66687 C 263.47213 335.95688 265.92996 333.21789 267.85196 331.39289 C 269.65695 329.6799 269.98315 329.4439 273.13915 327.5709 C 277.21714 325.14991 280.07412 322.22413 282.32412 318.16613 C 283.66212 315.75213 284.79414 314.55808 285.74614 314.55808 z" style="display:inline;stroke-width:.666667;fill:#0020a0;fill-opacity:1" transform="matrix(1.4999991,0,0,1.4999991,3.6576e-4,-6.1598501e-6)"/><path id="path4" fill="#fff" d="m 253.99971,558.79916 -25.16398,77.53795 h -81.78295 l 66.17096,48.09447 -25.17449,77.56796 65.95046,-47.93247 65.95196,47.93247 -25.17598,-77.56796 66.17246,-48.09447 H 279.1652 Z m 355.60029,0 -25.16548,77.53795 h -81.78296 l 66.17246,48.09447 -25.17448,77.56796 65.95046,-47.93247 65.95046,47.93247 -25.17598,-77.56796 66.17246,-48.09447 h -81.78146 z m 355.60029,0 -25.16549,77.53795 h -81.78295 l 66.17246,48.09447 -25.17598,77.56796 65.95196,-47.93247 65.95041,47.93247 -25.1759,-77.56796 66.1724,-48.09447 h -81.78293 z" style="display:inline;stroke-width:1"/></svg>

<svg xmlns="http://www.w3.org/2000/svg" xml:space="preserve" width="3072" height="2048" viewBox="0 0 812.8 541.867"><path fill="#fff" d="M67.733 0v338.667h67.734V0ZM203.2 0v338.667h67.733V0Zm135.467 0v338.667H406.4V0Zm135.466 0v338.667h67.734V0ZM609.6 0v338.667h67.733V0Zm135.467 0v338.667H812.8V0Z" paint-order="stroke fill markers"/><path fill="#e00000" d="M0 0v338.667h67.733V0Zm135.467 0v338.667H203.2V0Zm135.466 0v338.667h67.734V0zM406.4 0v338.667h67.733V0zm135.467 0v338.667H609.6V0zm135.466 0v338.667h67.734V0z" paint-order="stroke fill markers"/><path fill="#0020a0" d="M382.861 67.734c-7.453-.017-10.38.317-18.76 2.142-11.29 2.458-17.115 3.983-21.326 5.584-2.927 1.113-8.905 3.532-12.747 5.158-3.656 1.547-10.229 3.72-18.68 6.173-8.36 2.426-12.452 3.779-17.478 5.776-15.024 5.973-25.315 12.966-29.743 20.213a99.077 99.077 0 0 1-4.645 6.96c-4.792 6.552-9.978 15.384-10.594 18.042-.482 2.077-1.95 5.546-5.527 13.065-3.902 8.201-4.348 9.517-6.258 18.462-1.795 8.405-3.589 15.193-4.342 16.433-.407.67-.581 2.24-.782 7.034-.195 4.676-.519 8.503-1.51 17.88a945.92 945.92 0 0 0-1.056 10.502c-.752 8.268-1.89 13.78-4.401 21.327-1.964 5.9-4.227 11.244-7.694 18.172-1.01 2.02-1.945 4.096-2.078 4.614-.958 3.744-1.158 11.627-.334 13.22.522 1.009 1.748.664 3.513-.987 3.422-3.201 7.951-10.473 10.077-16.18.734-1.968 1.028-3.13 1.219-4.81.214-1.888.464-2.543 2.268-5.933 3.489-6.56 6.002-12.71 7.923-19.382 1.177-4.09 1.993-7.71 3.056-13.569 1.664-9.16 3.614-18.243 4.638-21.597.43-1.41.914-2.245 1.16-2 .073.072.18 3.392.237 7.375.098 6.9.194 8.293.624 9.099.296.551.76 3.278 1.116 6.553.59 5.418 1.498 9.772 2.757 13.212 1.494 4.086 2.646 7.83 4.768 15.499 2.656 9.6 2.767 10.032 3.281 12.827 1.184 6.432 1.217 12.942.092 18.31-.96 4.582-3.1 9.494-5.892 13.519-3.323 4.789-8.049 9.389-13.878 13.508-4.649 3.285-5.537 3.945-7.823 5.812-2.854 2.332-7.857 7.166-10.043 9.702-2.138 2.48-3.936 5.014-4.817 6.789-.682 1.373-.758 1.642-.804 2.816-.09 2.345 1.111 5.877 3.048 9.613H0v203.2h812.8v-203.2H597.273c.732-2.652.94-3.726 1.073-5.499.165-2.195-.007-7.354-.31-9.31-.4-2.587-1.46-4.912-7.123-15.619-6.012-11.369-8.373-17.631-8.892-23.585-.358-4.11-.527-17.027-.345-26.432.2-10.347.357-13.147.896-15.979 1.266-6.646 1.84-14.768 1.84-26.136 0-12.32-.76-25.473-2.18-37.681-.537-4.609-.474-6.835.33-11.558.72-4.222.952-6.601.826-8.444-.321-4.682-1.576-7.727-6.195-15.028-2.69-4.252-4.299-8.894-6.893-19.888-1.01-4.28-1.714-6.65-2.665-8.98-2.657-6.508-6.675-10.552-14.086-14.18-10.277-5.03-11.381-5.61-12.752-6.7-3.374-2.685-6.5-4.256-10.178-5.116-1.011-.236-1.893-.299-4.168-.292-2.58.007-3.09.055-4.799.455-2.489.583-4.157 1.177-6.907 2.458-5.782 2.695-6.687 3.093-8.26 3.63-4.274 1.457-7.662 1.351-12.082-.377-.898-.35-3.542-1.584-5.877-2.74-2.335-1.156-5.004-2.412-5.93-2.791-.926-.38-3.343-1.446-5.371-2.37-6.823-3.11-7.094-3.166-18.12-3.81-7.928-.462-11.99-.863-16.355-1.613-4.565-.785-6.364-1.32-16.273-4.833-10.346-3.668-13.958-4.748-20.205-6.037-8.332-1.72-15.326-2.46-23.41-2.478zM516.504 211.8c.947.047 1.543.293 2.662.958 2.095 1.243 12.462 5.465 16.664 6.786 1.56.49 2.533 1.003 4.57 2.41 2.061 1.423 3.595 2.28 4.293 2.402 2.573.446 4.148 5.808 5.491 18.689.967 9.272 2.222 14.92 7.053 31.748 2.63 9.164 3.49 12.458 3.765 14.44.203 1.458.817 2.766 2.042 4.35 1.255 1.623 2.55 3.713 4.043 6.526 2.142 4.033 3.747 6.422 6.594 9.818 4.908 5.853 8.279 11.47 10 16.657 1.41 4.253 1.894 8.182 1.443 12.083H539.22c-.388-.376-.687-.688-1.127-1.103-2.807-2.65-4.645-5.621-5.774-9.332-.628-2.064-.775-2.868-1.05-5.737-.286-2.995-.87-4.792-3.044-9.36-2.379-5.002-3.491-8.159-4.093-11.616-.381-2.194-.458-3.026-.648-7.004-.141-2.964-.518-5.781-1.06-7.937-.347-1.377-3.43-11.276-4.37-14.03-1.686-4.94-2.409-6.415-4.746-9.692-.94-1.318-2.264-3.33-2.942-4.472-1.322-2.225-3.665-5.417-6.577-8.96l-1.808-2.2.06-13.514c.054-12.219.086-13.617.34-14.585.58-2.225 1.415-2.956 5.567-4.875 3.73-1.724 5.655-2.354 7.46-2.44.426-.02.78-.026 1.096-.01zm-103.641 47.718-.085.382c-.14.631-1.82 10.551-2.005 11.846-.498 3.462-1.543 13.922-2.339 23.41-.706 8.409-1.192 11.896-2.23 15.991-.945 3.731-1.664 5.688-3.55 9.666-.731 1.544-1.48 3.348-1.665 4.009-.392 1.407-.643 4.075-.648 6.893-.004 2.466-.262 4.358-1.045 6.952h-73.319c-.012-1.812.132-4.33.427-6.872.584-5.03.71-7.033.71-11.224.001-4.794-.24-7.08-1.101-10.453a66.806 66.806 0 0 1-.8-3.527c-.337-1.846-.468-6.28-.32-10.83l.12-3.645 2.989-2.116c10.325-7.308 13.943-10.727 18.303-17.292 2.225-3.35 2.701-3.899 3.897-4.486 1.591-.78 2.825-.862 9.57-.634 6.1.206 13.205.127 15.874-.177 2.86-.325 12.102-1.933 14.35-2.497 2.774-.695 4.546-1.203 9.461-2.715 6.588-2.026 8.625-2.498 11.193-2.596l2.213-.085zm47.31 17.682c.882-.002.976.044 3.287 1.575 1.309.867 3.72 2.39 5.358 3.383 3.432 2.083 5.015 3.323 6.036 4.731 1.252 1.726 5.473 9.89 7.567 14.634 1.266 2.87 1.937 4.128 2.975 5.576.926 1.29 2.479 2.802 3.565 3.469 2.62 1.609 2.838 1.86 3.316 3.842.15.616.703 3.661 1.232 6.767 1.38 8.112 2.17 11.435 3.66 15.4.318.846.543 1.5.699 2.09h-57.356c-.072-1.789.163-3.585.962-7.5 1.338-6.55 1.825-8.2 3.442-11.638 1.844-3.921 2.46-5.8 4.788-14.591.62-2.337 1.495-5.476 1.947-6.975 1.795-5.957 3.045-11.48 3.045-13.46 0-1.05.494-3.017 1.018-4.05.218-.431.745-1.17 1.17-1.643.972-1.082 2.048-1.608 3.29-1.61zm-174.427 37.358c.584 0 1.463.827 1.932 1.818 1.129 2.387 1.62 6.28 1.488 11.812-.1 4.157-.377 6.831-1.13 10.479H261.23c2.242-2.71 4.7-5.449 6.622-7.274 1.805-1.713 2.131-1.949 5.287-3.822 4.078-2.421 6.935-5.347 9.185-9.405 1.338-2.414 2.47-3.608 3.422-3.608z" paint-order="stroke fill markers"/><path fill="#fff" d="m169.333 372.533-16.776 51.692H98.035l44.114 32.063L125.366 508l43.967-31.955L213.301 508l-16.784-51.712 44.115-32.063H186.11l-16.777-51.692zm237.067 0-16.777 51.692h-54.522l44.115 32.063L362.433 508l43.967-31.955L450.367 508l-16.784-51.712 44.115-32.063h-54.521L406.4 372.533zm237.067 0-16.777 51.692h-54.522l44.115 32.063L599.499 508l43.968-31.955L687.434 508l-16.784-51.712 44.115-32.063h-54.522l-16.776-51.692z"/></svg>
